X: 88
M:4/4
L:1/8
K:G
gf|eA (3AGA edBd|(3efg dB GABd|1eA (3AAA edBc|d2 ef g2:|
2edef gfga|gedBA2||BA|G2 Bd g2 ge|
dedB d2 BA|G2 Bd g2 af|gedB AcBA|

